X:440
T:Red Crow, The
M:C|
L:1/8
C:Mairad N Mhaonaigh
R:reel
D:Altan: The Red Crow
Z:Devin McCabe
K:ADor
A,2EA, B,G,G,B,|~A,2EG FDEG|AGED EA,A,D|ECDC B,G,G,B,|
!~A,2EA, B,G,G,B,|~A,2EG FDEG|AGED EA,CE|DB,G,B, A,2(3G,A,B,|
!A,2EA, B,G,G,B,|~A,2EG FDEG|AGED EA,A,D|ECDC B,G,G,B,|
!~A,2EA, B,G,G,B,|~A,2EG FDEG|AGED EA,CE|DB,G,B, A,3A|
!A2eA ceAc|eAce dcBA|G/2G/2G dc BdGB|dGBd edcB|
!A/2A/2A eA ceAc|eAcb ageg|age^c d=fed|=cABG A2 (3EFG|
!A/2A/2A eA ceAc|eAce dcBA|G/2G/2G dc BdGB|dGBd edcB|
!A/A/2A aA gAfA|A/2A/2A cA BAGB|cBAG AGED|ECDB, CA,B,G,||
